X: 21151
M: 2/4
L: 1/16
K: G
V: 1 name="4"
[|\
[|\
d2dd "^>"g4 | B2BB "^>"d4 | G2GG ({A}GFGB) | (AGFE) D4 |\
d2dd "^>"g4 | B2BB "^>"d4 | G2GG ({A}GFGB) | A2dd d2D"^D.C."D |] [K:=f]
K: C
[|\


